Mirae1/images/center.svg

<svg width="319" height="64" viewBox="0 0 319 64" fill="none" xmlns="http://www.w3.org/2000/svg">
<path d="M15.4 49.56C13.4267 49.56 11.6267 49.2133 10 48.52C8.4 47.8 7.01333 46.7733 5.84 45.44C4.66667 44.08 3.76 42.4533 3.12 40.56C2.48 38.64 2.16 36.48 2.16 34.08C2.16 31.68 2.48 29.5333 3.12 27.64C3.76 25.7467 4.66667 24.1467 5.84 22.84C7.01333 21.5333 8.4 20.5467 10 19.88C11.6267 19.1867 13.4267 18.84 15.4 18.84C17.3467 18.84 19.1333 19.1867 20.76 19.88C22.3867 20.5733 23.7867 21.5733 24.96 22.88C26.1333 24.16 27.04 25.7467 27.68 27.64C28.32 29.5333 28.64 31.68 28.64 34.08C28.64 36.48 28.32 38.64 27.68 40.56C27.04 42.4533 26.1333 44.08 24.96 45.44C23.7867 46.7733 22.3867 47.8 20.76 48.52C19.1333 49.2133 17.3467 49.56 15.4 49.56ZM15.4 44.44C16.4933 44.44 17.48 44.2 18.36 43.72C19.2667 43.24 20.0267 42.5467 20.64 41.64C21.28 40.7333 21.76 39.64 22.08 38.36C22.4267 37.08 22.6 35.6533 22.6 34.08C22.6 30.88 21.9467 28.3867 20.64 26.6C19.36 24.8133 17.6133 23.92 15.4 23.92C13.1867 23.92 11.4267 24.8133 10.12 26.6C8.84 28.3867 8.2 30.88 8.2 34.08C8.2 35.6533 8.36 37.08 8.68 38.36C9.02667 39.64 9.50667 40.7333 10.12 41.64C10.76 42.5467 11.52 43.24 12.4 43.72C13.3067 44.2 14.3067 44.44 15.4 44.44ZM33.8613 19.4H39.9013L48.5013 35.16L51.4613 41.56H51.6613C51.5013 40.0133 51.3279 38.32 51.1413 36.48C50.9813 34.64 50.9013 32.88 50.9013 31.2V19.4H56.5013V49H50.5013L41.9413 33.16L38.9413 26.8H38.7413C38.8746 28.4 39.0213 30.0933 39.1813 31.88C39.3679 33.6667 39.4613 35.4133 39.4613 37.12V49H33.8613V19.4ZM63.2622 19.4H69.1822V44.04H81.1822V49H63.2622V19.4ZM87.0381 38.16L78.1581 19.4H84.4381L87.3981 26.6C87.8248 27.72 88.2381 28.8133 88.6381 29.88C89.0648 30.92 89.5048 32.0133 89.9581 33.16H90.1181C90.5715 32.0133 91.0115 30.92 91.4381 29.88C91.8915 28.8133 92.3315 27.72 92.7581 26.6L95.7181 19.4H101.878L92.9581 38.16V49H87.0381V38.16Z" fill="white"/>
<path d="M119 35.0918C119 42.6728 124.66 50.275 134.33 50.275C144 50.275 143.596 47.3738 143.596 47.3738L141.851 43.2763C141.851 43.2763 125.074 48.8138 125.074 35.4941C125.074 22.1744 135.468 23.3073 140.202 24.3343L142.255 20.3427C142.255 20.3427 120.128 13.3757 119 35.0918Z" fill="white"/>
<path d="M176.319 19.2841V49.587H182.5V25.3722L194.606 49.587H203.191V19.2841H197.362V43.4247L184.596 19.2841H176.319Z" fill="white"/>
<path d="M232.979 19.2841H209.521V24.5039H217.447V49.587H223.883V24.5039H230.266L232.979 19.2841Z" fill="white"/>
<path d="M244.319 36.6696H255.149V31.2273H246.128L244.319 33.4085V24.4298H254.553L256.734 19.3582H244.319V19.2841H238.085V19.3582V24.4298V44.5153V46.4741V49.587H254.553L256.734 44.5153H244.319V36.6696Z" fill="white"/>
<path d="M156.457 36.6696H167.287V31.2273H158.266L156.457 33.4085V24.4298H166.691L168.872 19.3582H156.457V19.2841H150.223V19.3582V24.4298V44.5153V46.4741V49.587H166.691L168.872 44.5153H156.457V36.6696Z" fill="white"/>
<path d="M282.5 44.515L277.468 36.521C280.521 35.6528 284.128 33.4823 284.128 28.1248C284.128 18.8179 275.138 19.2838 275.138 19.2838H264.074V49.5867H270.309V37.1034H271.511L279.234 49.5867H284.787L287.383 44.515H282.489H282.5ZM270.309 32.8788V24.4295H274.532C274.532 24.4295 279 24.3025 279 28.1883C279 32.0741 275.5 32.8682 274.66 32.8682H270.319L270.309 32.8788Z" fill="white"/>
<path d="M295.255 18.4398L302.787 11.7164H305.33V23.6703C305.33 23.6703 303.255 23.9032 303.255 27.4396C303.255 30.976 305.33 31.1136 305.33 31.1136V43.5969H295.808V42.0722L301.787 39.5523V17.5398L299.734 18.4398H295.255Z" fill="white"/>
<path d="M306.457 11.7164H309.542V39.5523L314.851 42.0722V43.5969H306.457V30.4889C306.457 30.4889 304.361 30.0231 304.361 27.3549C304.361 24.6867 305.34 24.4644 306.457 23.9667V11.7164Z" fill="white"/>
</svg>

<svg width="319" height="64" fill="none" xmlns="http://www.w3.org/2000/svg"><path d="M15.4 49.56c-1.973 0-3.773-.347-5.4-1.04a12.099 12.099 0 0 1-4.16-3.08c-1.173-1.36-2.08-2.987-2.72-4.88-.64-1.92-.96-4.08-.96-6.48 0-2.4.32-4.547.96-6.44.64-1.893 1.547-3.493 2.72-4.8A11.446 11.446 0 0 1 10 19.88c1.627-.693 3.427-1.04 5.4-1.04 1.947 0 3.733.347 5.36 1.04a11.786 11.786 0 0 1 4.2 3c1.173 1.28 2.08 2.867 2.72 4.76.64 1.893.96 4.04.96 6.44 0 2.4-.32 4.56-.96 6.48-.64 1.893-1.547 3.52-2.72 4.88a11.999 11.999 0 0 1-4.2 3.08c-1.627.693-3.413 1.04-5.36 1.04zm0-5.12c1.093 0 2.08-.24 2.96-.72.907-.48 1.667-1.173 2.28-2.08.64-.907 1.12-2 1.44-3.28.347-1.28.52-2.707.52-4.28 0-3.2-.653-5.693-1.96-7.48-1.28-1.787-3.027-2.68-5.24-2.68s-3.973.893-5.28 2.68c-1.28 1.787-1.92 4.28-1.92 7.48 0 1.573.16 3 .48 4.28.347 1.28.827 2.373 1.44 3.28.64.907 1.4 1.6 2.28 2.08.907.48 1.907.72 3 .72zM33.861 19.4h6.04l8.6 15.76 2.96 6.4h.2c-.16-1.547-.333-3.24-.52-5.08-.16-1.84-.24-3.6-.24-5.28V19.4h5.6V49h-6l-8.56-15.84-3-6.36h-.2c.134 1.6.28 3.293.44 5.08a50.44 50.44 0 0 1 .28 5.24V49h-5.6V19.4zm29.401 0h5.92v24.64h12V49h-17.92V19.4zm23.776 18.76-8.88-18.76h6.28l2.96 7.2c.427 1.12.84 2.213 1.24 3.28.427 1.04.867 2.133 1.32 3.28h.16c.454-1.147.894-2.24 1.32-3.28.453-1.067.894-2.16 1.32-3.28l2.96-7.2h6.16l-8.92 18.76V49h-5.92V38.16zM119 35.092c0 7.58 5.66 15.183 15.33 15.183s9.266-2.901 9.266-2.901l-1.745-4.098s-16.777 5.538-16.777-7.782 10.394-12.187 15.128-11.16l2.053-3.991S120.128 13.376 119 35.092zM176.319 19.284v30.303h6.181V25.372l12.106 24.215h8.585V19.284h-5.829v24.14l-12.766-24.14h-8.277zM232.979 19.284h-23.458v5.22h7.926v25.083h6.436V24.504h6.383l2.713-5.22zM244.319 36.67h10.83v-5.443h-9.021l-1.809 2.181V24.43h10.234l2.181-5.072h-12.415v-.074h-6.234V49.587h16.468l2.181-5.072h-12.415V36.67zM156.457 36.67h10.83v-5.443h-9.021l-1.809 2.181V24.43h10.234l2.181-5.072h-12.415v-.074h-6.234V49.587h16.468l2.181-5.072h-12.415V36.67zM282.5 44.515l-5.032-7.994c3.053-.868 6.66-3.039 6.66-8.396 0-9.307-8.99-8.841-8.99-8.841h-11.064v30.303h6.235V37.103h1.202l7.723 12.484h5.553l2.596-5.072h-4.894.011zm-12.191-11.636v-8.45h4.223S279 24.303 279 28.19c0 3.885-3.5 4.68-4.34 4.68h-4.341l-.01.01zM295.255 18.44l7.532-6.724h2.543V23.67s-2.075.233-2.075 3.77c0 3.536 2.075 3.674 2.075 3.674v12.483h-9.522v-1.525l5.979-2.52V17.54l-2.053.9h-4.479z" fill="#fff"/><path d="M306.457 11.716h3.085v27.836l5.309 2.52v1.525h-8.394V30.489s-2.096-.466-2.096-3.134c0-2.668.979-2.89 2.096-3.388v-12.25z" fill="#fff"/></svg>
